X:1
T:Nearer my God to Thee
T:Nearer my God to Thee
T:Titanic 
%%score [ 1 2 3 4 ]
L:1/8
Q:1/4=60
M:4/4
K:G
V:1 treble nm="Violin I"
V:2 treble nm="Violin II"
V:3 alto nm="Viola"
V:4 bass nm="Violoncello"
V:1
 B4 A2 G2 | G3 E E4 | D4 G2 B2 | A8 | B4 A2 G2 | G3 E E4 | D2 G2 F2 A2 | G8 | d4 e2 d2 | d3 B d4 | %10
 d4 e2 d2 | d3 B A4 | B4 A2 G2 | G3 E E4 | D2 G2 F2 A2 | G8 | B4 A2 G2 | G3 E E4 | D4 G2 B2 | A8 | %20
 B4 A2 G2 | G3 E E4 | D2 G2 F2 A2 | G8 | d4 e2 d2 | d3 B d4 | d4 e2 d2 | d3 B A2 ^A2 | B4 A2 G2 | %29
 G3 E E4 | D2 G2 F2 A2 | G8 | b4 a2 g2 | g3 e e4 | d4 g2 b2 | a6 (d'c') | b4 a2 g2 | g3 e e4 | %38
 d2 g2 f2 a2 | g8 | d'4 e'2 d'2 | d'3 b d'4 | d'4 e'2 d'2 | d'3 b a4 | b4 a2 g2 | g3 e e4 | %46
 d2 g2 f2 a2 | g8 | B4 (3ABA G2 | G3 E E3 D/C/ | D4 G2 BA/G/ | A/G/ (A3 A2) ^A2 | B4 A2 G2 | %53
 G3 E E4 | D2 G2 F2 A2 | G3 G, G2 (Bc) | d4 e2 d2 | d3 B d4 | d'4 e'2 d'2 | d'3 b a4 | B4 A2 G2 | %61
 G3 E E4 | D2 G2 F2 A2 | G8 | b4 a2 g2 | g3 e e3 d/c/ | B4 g2 b2 | a4 d'2 c'2 | %68
 b4 a2 g3/2(3f/4e/4f/4 | g3 e e4 | d2 g2 f2 a2 | g8 |] %72
V:2
 z8 | z8 | z8 | z8 | D4 C2 B,2 | E3 C C4 | B,2 D2 D2 D2 | D8 | G4 G2 G2 | G3 G G4 | G4 G2 G2 | %11
 D3 D D4 | D4 D2 B,2 | E3 C C4 | B,2 D2 D2 D2 | D8 | D4 A,2 B,2 | E3 C C4 | B,2 D2 D2 D2 | G4 F4 | %20
 D4 A,2 B,2 | E3 C C4 | B,2 D2 D2 D2 | D8 | D4 E2 D2 | D3 D D4 | D4 E2 D2 | D3 z C4 | D8 | E8 | %30
 D8 | D8 | D6 C2 | E8 | D8 | D8 | D6 C2 | E8 | G,2 B,2 A,2 C2 | B,8 | D4 E2 D2 | D3 D D4 | %42
 D4 E2 D2 | D3 z C4 | D6 C2 | E8 | G,2 B,2 A,2 C2 | B,8 | D4 A,2 B,2 | E3 C C4 | B,2 D2 D2 D2 | %51
 G4 F4 | D4 A,2 B,2 | E3 C C4 | B,2 D2 D2 D2 | D8 | D4 E2 D2 | D3 D D4 | D4 E2 D2 | D3 z C4 | %60
 D4 A,2 B,2 | E3 C C4 | B,2 D2 D2 D2 | D8 | D6 C2 | E8 | D8 | D8 | D6 C2 | E8 | G,2 B,2 A,2 C2 | %71
 B,8 |] %72
V:3
 z8 | z8 | z8 | z8 | z8 | z8 | z8 | z8 | B,4 C2 B,2 | B,3 D B,4 | B,4 C2 B,2 | A,3 G, F,4 | %12
 G,4 F,2 G,2 | G,3 G, G,4 | G,2 B,2 A,2 C2 | B,8 | D4 D4 | C4 C4 | B,4 B,4 | C4 D4 | D4 D4 | %21
 C4 C4 | B,4 C4 | B,8 | G,4 G,2 G,2 | G,3 G, G,4 | G,4 G,2 G,2 | G,4 C,4 | D8 | C8 | B,4 C4 | B,8 | %32
 B,4 F,2 G,2 | C4 C4 | B,4 B,4 | F,8 | B,4 F,2 G,2 | C4 C4 | B,4 C4 | B,8 | G,4 G,2 G,2 | %41
 G,3 G, G,4 | G,4 G,2 G,2 | F,3 D, C,4 | B,4 F,2 G,2 | C4 C4 | B,4 C4 | B,8 | D4 D4 | C4 C4 | %50
 B,4 B,4 | C4 D4 | D4 D4 | C4 C4 | B,4 C4 | B,8 | G,4 G,2 G,2 | G,3 G, G,4 | G,4 G,2 G,2 | %59
 G,4 C,4 | D4 D4 | C4 C4 | B,4 C4 | B,8 | B,4 F,2 G,2 | G,4 G,4 | B,4 B,4 | F,8 | B,4 F,2 G,2 | %69
 C4 C4 | B,4 C4 | B,8 |] %72
V:4
 z8 | z8 | z8 | z8 | z8 | z8 | z8 | z8 | G,4 G,2 G,2 | G,3 G, G,4 | G,4 C,2 G,2 | F,3 G, D,4 | %12
 G,4 D,2 E,2 | C,3 C, C,4 | D,4 D,4 | D,8 | G,,2 D,2 G,2 G,,2 | C,,2 G,,2 E,2 C,,2 | %18
 G,,2 D,2 G,2 G,,2 | C,3 z D,,2 F,,2 | G,,2 D,2 G,2 G,,2 | C,,2 G,,2 E,2 C,,2 | G,,4 D,,4 | %23
 G,,2 D,2 G,2 A,2 | B,4 C2 B,2 | B,3 G, B,4 | B,4 C2 B,2 | B,3 G, F,4 | G,2 D,2 G,,4 | %29
 C,,2 G,,2 E,2 C,,2 | D,4 D,,4 | G,,8 | G,4 D,2 E,2 | C,3 C, C,4 | G,,4 B,,2 G,,2 | D,8 | %36
 G,4 D,2 E,2 | C,3 C, C,4 | D,4 D,,4 | G,,8 | B,4 C2 B,2 | B,3 G, B,4 | B,4 C2 B,2 | B,3 G, F,4 | %44
 G,4 D,2 E,2 | C,3 C, C,4 | D,4 D,,4 | G,,8 | G,,2 D,2 G,2 G,,2 | C,,2 G,,2 E,2 C,,2 | %50
 G,,2 D,2 G,2 G,,2 | C,3 z D,,2 F,,2 | G,,2 D,2 G,2 G,,2 | C,,2 G,,2 E,2 C,,2 | G,,4 D,,4 | %55
 G,,2 D,2 G,2 A,2 | B,4 C2 B,2 | B,3 G, F,4 | B,4 C2 B,2 | B,3 G, F,4 | G,,2 D,2 G,2 G,,2 | %61
 C,,2 G,,2 E,2 C,,2 | G,,4 D,,4 | G,,8 | G,4 D,2 E,2 | C,3 C, C,4 | G,,4 B,,2 G,,2 | D,8 | %68
 G,4 D,2 E,2 | C,3 C, C,4 | D,4 D,,4 | G,,8 |] %72

